apps/documentation/public/logo.svg

<svg fill="none" height="139" viewBox="0 0 139 139" width="139" xmlns="http://www.w3.org/2000/svg"><path d="m109.274 69.6169c0-5.3719-6.742-10.4628-17.0794-13.6198 2.3855-10.5124 1.3253-18.876-3.3464-21.5537-1.0768-.6281-2.3359-.9256-3.7109-.9256v3.686c.762 0 1.375.1487 1.8886.4297 2.253 1.2893 3.2304 6.1983 2.4684 12.5123-.1823 1.5538-.4805 3.1901-.8449 4.8595-3.247-.7933-6.7922-1.4049-10.5196-1.8016-2.2365-3.0578-4.5558-5.8347-6.8916-8.2644 5.4006-5.0083 10.4699-7.7521 13.9157-7.7521v-3.6859c-4.5557 0-10.5197 3.2396-16.5498 8.8595-6.0302-5.5868-11.994-8.7934-16.5498-8.7934v3.6859c3.4293 0 8.5151 2.7273 13.9158 7.7025-2.3193 2.4297-4.6386 5.1901-6.8419 8.2479-3.744.3967-7.2892 1.0083-10.5362 1.8182-.381-1.6529-.6627-3.2562-.8615-4.7934-.7786-6.314.1822-11.2231 2.4187-12.5289.497-.2975 1.1431-.4297 1.9051-.4297v-3.686c-1.3916 0-2.6506.2975-3.744.9256-4.6551 2.6777-5.6988 11.0248-3.2967 21.5041-10.3042 3.1735-17.0136 8.2479-17.0136 13.6033 0 5.3718 6.7425 10.4627 17.0799 13.6197-2.3856 10.5124-1.3253 18.8764 3.3464 21.5534 1.0768.628 2.3358.926 3.7274.926 4.5558 0 10.5197-3.24 16.5498-8.8596 6.0302 5.5866 11.994 8.7936 16.5498 8.7936 1.3915 0 2.6506-.298 3.744-.926 4.6551-2.677 5.6988-11.0246 3.2967-21.5039 10.271-3.157 16.98-8.2479 16.98-13.6032zm-21.5689-11.0248c-.6129 2.1322-1.375 4.3306-2.2365 6.5289-.6792-1.3223-1.3915-2.6446-2.1701-3.9669-.7621-1.3223-1.5738-2.6116-2.3856-3.8678 2.3524.3471 4.622.7769 6.7922 1.3058zm-7.5874 17.6032c-1.2922 2.2314-2.6174 4.3471-3.9925 6.3141-2.4683.2149-4.9699.3306-7.488.3306-2.5015 0-5.003-.1158-7.4548-.3141-1.375-1.9669-2.7169-4.0661-4.0091-6.281-1.259-2.1652-2.4021-4.3636-3.4458-6.5785 1.0272-2.2148 2.1868-4.4297 3.4293-6.595 1.2921-2.2314 2.6175-4.3471 3.9925-6.314 2.4683-.2149 4.9699-.3306 7.4879-.3306 2.5016 0 5.0031.1157 7.4549.3141 1.375 1.9669 2.7169 4.0661 4.0091 6.2809 1.259 2.1653 2.4021 4.3637 3.4457 6.5785-1.0436 2.2149-2.1867 4.4298-3.4292 6.595zm5.3509-2.1487c.8946 2.2149 1.6567 4.4297 2.2862 6.5785-2.1702.5289-4.4563.9752-6.8253 1.3223.8117-1.2727 1.6235-2.5785 2.3855-3.9173.7621-1.3224 1.4744-2.6612 2.1536-3.9835zm-16.7982 17.6363c-1.5407-1.5868-3.0814-3.3554-4.6055-5.2892 1.491.0661 3.0151.1157 4.5558.1157 1.5572 0 3.0979-.0331 4.6054-.1157-1.491 1.9338-3.0316 3.7024-4.5557 5.2892zm-12.3254-9.7355c-2.3524-.3471-4.622-.7769-6.7922-1.3058.613-2.1322 1.375-4.3305 2.2365-6.5289.6792 1.3223 1.3916 2.6446 2.1702 3.9669.7786 1.3224 1.5738 2.6116 2.3855 3.8678zm12.2426-34.3966c1.5406 1.5868 3.0813 3.3554 4.6054 5.2893-1.491-.0662-3.0151-.1157-4.5558-.1157-1.5572 0-3.0979.033-4.6054.1157 1.491-1.9339 3.0316-3.7025 4.5558-5.2893zm-12.2591 9.7355c-.8118 1.2727-1.6235 2.5785-2.3856 3.9174-.7621 1.3223-1.4744 2.6446-2.1536 3.9669-.8946-2.2149-1.6567-4.4297-2.2862-6.5785 2.1702-.5124 4.4564-.9587 6.8254-1.3058zm-14.9926 20.6942c-5.8645-2.4959-9.6582-5.7686-9.6582-8.3636 0-2.5951 3.7937-5.8843 9.6582-8.3636 1.4247-.6116 2.9819-1.1571 4.5889-1.6695.9443 3.2397 2.1868 6.6116 3.7274 10.0661-1.5241 3.438-2.75 6.7934-3.6777 10.0165-1.6401-.5124-3.1973-1.0744-4.6386-1.6859zm8.9127 23.6195c-2.253-1.289-3.2304-6.1981-2.4684-12.5121.1822-1.5538.4804-3.1901.8449-4.8595 3.247.7934 6.7922 1.4049 10.5196 1.8016 2.2365 3.0579 4.5558 5.8347 6.8916 8.2645-5.4006 5.0082-10.4699 7.7525-13.9157 7.7525-.7455-.017-1.375-.166-1.872-.447zm39.2954-12.5948c.7786 6.314-.1823 11.2228-2.4187 12.5288-.497.298-1.1431.43-1.9051.43-3.4293 0-8.5152-2.7274-13.9158-7.7026 2.3193-2.4297 4.6386-5.1901 6.8419-8.2479 3.744-.3967 7.2892-1.0083 10.5362-1.8182.3811 1.6694.6792 3.2727.8615 4.8099zm6.378-11.0247c-1.4247.6115-2.9819 1.157-4.5889 1.6694-.9443-3.2397-2.1867-6.6116-3.7274-10.0661 1.5241-3.438 2.75-6.7934 3.6777-10.0165 1.6401.5124 3.1973 1.0744 4.6552 1.686 5.8644 2.4958 9.6584 5.7685 9.6584 8.3636-.017 2.595-3.811 5.8842-9.675 8.3636z" fill="#61dafb"/><path d="m68.6207 77.1706c4.1812 0 7.5708-3.3819 7.5708-7.5537s-3.3896-7.5537-7.5708-7.5537c-4.1813 0-7.5708 3.3819-7.5708 7.5537s3.3895 7.5537 7.5708 7.5537z" fill="#61dafb"/><path clip-rule="evenodd" d="m132.207 64.1683 5.838 3.6133c.589.3613.951 1.0117.951 1.7121 0 .6949-.362 1.3397-.951 1.7066l-5.838 3.6133c-.05.5671-.106 1.1341-.167 1.7011l5.015 4.6806c.512.4725.74 1.1729.601 1.8567-.134.6838-.617 1.2452-1.268 1.4898l-6.411 2.3959c-.161.5559-.328 1.1062-.501 1.6566l3.998 5.5534c.412.5614.495 1.2952.228 1.9401-.267.6392-.845 1.1006-1.534 1.2118l-6.762 1.1007c-.261.5114-.534 1.0117-.812 1.5176l2.842 6.2311c.294.634.233 1.374-.156 1.952-.384.578-1.045.917-1.741.889l-6.861-.239c-.35.445-.712.884-1.079 1.318l1.574 6.681c.161.679-.039 1.39-.534 1.879-.489.495-1.201.695-1.88.534l-6.683-1.573c-.434.367-.873.722-1.318 1.078l.239 6.86c.011.317-.05.628-.183.912-.462 1.006-1.652 1.445-2.658.984l-6.2337-2.841c-.1043.056-.2083.112-.3123.168-.4004.216-.7996.432-1.2058.644l-1.1009 6.754c-.0501.305-.1669.6-.3504.85-.645.901-1.9016 1.101-2.8024.456l-5.555-4.002c-.5505.177-1.101.344-1.657.505l-2.3966 6.41c-.2447.656-.8063 1.134-1.4902 1.267-.6784.139-1.3846-.089-1.8572-.6l-4.6764-5.014c-.5672.067-1.1343.122-1.7015.172l-3.6143 5.837c-.367.589-1.0121.951-1.7071.951-.6951 0-1.3401-.362-1.7071-.951l-3.6143-5.837c-.142-.014-.284-.027-.426-.041-.4251-.041-.8504-.081-1.2755-.131l-4.682 5.014c-.4726.511-1.1733.739-1.8572.6-.6839-.133-1.2455-.617-1.4902-1.267l-2.3966-6.41c-.556-.161-1.1065-.333-1.657-.505l-5.5549 4.002c-.5672.406-1.3012.489-1.9462.222-.6395-.266-1.101-.845-1.2122-1.534l-1.101-6.754c-.5116-.261-1.0176-.534-1.518-.812l-6.2333 2.841c-.2836.128-.595.189-.9064.178-1.1121-.045-1.974-.973-1.9351-2.079l.2391-6.86c-.4448-.35-.8841-.711-1.3178-1.078l-6.6837 1.573c-.6728.161-1.3901-.039-1.8795-.534-.4893-.489-.695-1.201-.5338-1.879l1.5903-6.665c-.367-.434-.7284-.873-1.0843-1.317l-6.8561.239c-.695.027-1.3567-.312-1.7404-.89s-.4449-1.317-.1557-1.951l2.8414-6.2316c-.278-.5003-.5449-1.0061-.8118-1.5176l-6.76159-1.1006c-.31139-.0501-.60054-.1724-.85633-.3558-.89524-.6504-1.10098-1.9012-.4504-2.8017l3.99801-5.5534c-.17237-.5504-.3392-1.1007-.50046-1.6566l-6.41125-2.3959c-.29471-.1056-.55605-.2835-.76735-.5114-.75623-.8116-.71175-2.0791.10008-2.8351l5.01558-4.6806c-.06116-.567-.11676-1.134-.16681-1.7011l-5.838529-3.6133c-.589413-.3613-.950851-1.0117-.950851-1.7066 0-.6948.361438-1.3397.950851-1.7066l5.838529-3.6133c.05005-.567.10565-1.134.16681-1.701l-5.01558-4.6751c-.22798-.2112-.40035-.4725-.51156-.7616-.3948-1.0395.13346-2.2013 1.17328-2.5905l6.41125-2.3959c.15569-.5559.32807-1.1062.50044-1.6565l-3.998-5.5534c-.17793-.2502-.30027-.5448-.35031-.8505-.1835-1.0952.56161-2.1291 1.65703-2.307l6.76156-1.1007c.2614-.5114.5338-1.0173.8118-1.5176l-2.8414-6.2316c-.2891-.6337-.2335-1.373.1557-1.9512.3893-.5725 1.0454-.9116 1.7405-.8894l6.8616.2391c.3503-.4392.7118-.8784 1.0788-1.312l-1.5737-6.6818c-.1612-.6727.039-1.3898.5338-1.879.4894-.4891 1.2011-.6948 1.8795-.5336l6.6837 1.5732c.4337-.3669.873-.7282 1.3179-1.084l-.2392-6.8598c-.0278-.6948.3114-1.3564.8897-1.7399.5783-.3836 1.3123-.4447 1.9462-.1557l6.2334 2.8407c.5004-.278 1.0064-.5448 1.518-.8117l1.1009-6.75964c.1113-.68931.5728-1.26744 1.2122-1.53427.6451-.26683 1.379-.17789 1.9462.22791l5.5549 3.99689c.545-.17233 1.0955-.33909 1.6515-.5003l2.3966-6.40948c.1056-.29462.2836-.56145.5116-.77269.8118-.75602 2.0796-.71155 2.8358.10006l4.682 5.01973c.5671-.0667 1.1342-.11673 1.7014-.16675l3.6144-5.836915c.1613-.26683.3837-.489188.6506-.650397.9397-.58369 2.1797-.29462476 2.7636.650397l3.6143 5.836895c.5672.05004 1.1343.10563 1.7015.16677l4.6764-5.01973c.4726-.50586 1.1733-.73378 1.8572-.60037.6839.13342 1.2455.61705 1.4902 1.26744l2.3966 6.40948c.556.16121 1.1065.32797 1.6515.5003l5.5605-3.99688c.2557-.17789.5449-.30019.8507-.35022 1.0954-.18344 2.1297.56146 2.3076 1.65657l1.101 6.7597c.5116.2613 1.0176.5336 1.518.8116l6.2282-2.8406c.633-.2891 1.373-.2335 1.951.1556.579.3836.918 1.0451.89 1.74l-.239 6.8597c.445.3558.884.7171 1.318 1.084l6.683-1.5732c.679-.1612 1.391.0389 1.88.5337.489.4892.695 1.2007.534 1.8789l-1.579 6.6819c.367.428.728.8672 1.084 1.3119l6.861-.239c.696-.0278 1.357.3113 1.741.8894.389.5781.445 1.3175.156 1.9512l-2.842 6.2316c.278.5003.551 1.0061.812 1.5176l6.762 1.1006c.305.0501.595.1724.85.3558.901.6504 1.107 1.9012.456 2.8017l-3.998 5.5534c.173.5503.34 1.1007.501 1.6566l6.411 2.3959c.656.2446 1.134.806 1.268 1.4898.139.6837-.089 1.3897-.601 1.8622l-5.015 4.6751c.061.567.117 1.134.167 1.7011zm-36.394 47.1007c-.4782 2.235.9398 4.431 3.1695 4.909 2.2295.478 4.4265-.945 4.8985-3.174.479-2.229-.939-4.431-3.169-4.909-2.2299-.478-4.4207.94-4.899 3.174zm-3.2807-5.609c.4393-2.034 2.4411-3.324 4.4707-2.89l8.73 1.879c1.702-1.724 3.275-3.569 4.71-5.5205-.013.0022-.027.0043-.04.0064 2.588-3.2658 5.608-7.542 7.162-11.4013 1.731-4.3016 2.365-10.1359 2.565-14.9212h.044c.094-1.2507.139-2.5071.139-3.7745 0-1.5848-.072-3.1457-.216-4.6915-.006-.1072-.01-.1632-.01-.1632l-.006-.0011c-.006-.064-.012-.1279-.019-.1917l-9.375-4.1637c-1.896-.8394-2.752-3.0685-1.912-4.9697l4.871-11.0012c-7.16-12.5255-19.4972-21.706-34.0954-24.6358l-.4324-.3133-.0803.2131c-.0614-.0116-.1229-.0232-.1844-.0347l-7.1119 6.7986-.0055.0056c-1.5014 1.4342-3.8813 1.3731-5.3159-.1278l-6.0438-6.3382-.1669-.5166c-.6392.1781-1.267.3606-1.8834.5473-10.4907 2.3517-19.7608 7.9495-26.6924 15.6854h.1051c-5.1922 5.8289-6.3612 10.6347-6.3612 10.6347l3.1514 6.1363.0414.0538 1.1894 2.6927c.8452 1.9011-.0111 4.1247-1.9128 4.9697l-7.506 3.3366-1.5981.5566s-.0256 1.0616-.0028 2.7709c-.0485.9093-.0735 1.8255-.0735 2.7472-.0044 3.782.4135 7.5462 1.2451 11.2293.3365 1.8894.7675 3.7081 1.3192 5.3104 3.5973 10.4484 11.6106 18.9064 11.6106 18.9064l.1796-.085 8.5103-1.83c2.0351-.433 4.0369.862 4.4706 2.897l2.0686 9.667c6.5113 3.024 13.7622 4.714 21.4135 4.714 7.4789 0 14.5796-1.612 20.9742-4.514l2.074-9.667zm-57.8792 7.144c.4782 2.234 2.6746 3.657 4.9043 3.174 2.2242-.478 3.6422-2.68 3.1695-4.909-.4782-2.229-2.6746-3.652-4.9044-3.174-2.2297.478-3.6476 2.674-3.1694 4.909zm-12.956-55.2453c2.0852-.9228 3.0249-3.3688 2.1019-5.4534-.9231-2.0901-3.3641-3.0296-5.4438-2.1013-2.0852.9284-3.0249 3.3688-2.1018 5.4534.923 2.0846 3.3585 3.0296 5.4437 2.1013zm50.5617-43.9936c-1.5792-1.6454-4.1927-1.7121-5.8386-.1334-1.6459 1.5732-1.707 4.1859-.139 5.8425 1.5792 1.651 4.1926 1.7121 5.8386.1334 1.6514-1.5732 1.7126-4.1915.139-5.8425zm47.9202 36.6335c-2.085-.9172-4.515.0222-5.438 2.1069-.923 2.0846.017 4.5305 2.102 5.4533 0 .0055.005.0055.005.0055 2.086.9173 4.521-.0222 5.439-2.1068.923-2.0846-.017-4.5305-2.102-5.4533 0-.0056-.006-.0056-.006-.0056z" fill="#000" fill-rule="evenodd"/></svg>

<svg width="139" height="139" viewBox="0 0 139 139" fill="none" xmlns="http://www.w3.org/2000/svg">
<path d="M109.274 69.6169C109.274 64.245 102.532 59.1541 92.1946 55.9971C94.5801 45.4847 93.5199 37.1211 88.8482 34.4434C87.7714 33.8153 86.5123 33.5178 85.1373 33.5178V37.2038C85.8993 37.2038 86.5123 37.3525 87.0259 37.6335C89.2789 38.9228 90.2563 43.8318 89.4943 50.1458C89.312 51.6996 89.0138 53.3359 88.6494 55.0053C85.4024 54.212 81.8572 53.6004 78.1298 53.2037C75.8933 50.1459 73.574 47.369 71.2382 44.9393C76.6388 39.931 81.7081 37.1872 85.1539 37.1872V33.5013C80.5982 33.5013 74.6342 36.7409 68.6041 42.3608C62.5739 36.774 56.6101 33.5674 52.0543 33.5674V37.2533C55.4836 37.2533 60.5694 39.9806 65.9701 44.9558C63.6508 47.3855 61.3315 50.1459 59.1282 53.2037C55.3842 53.6004 51.839 54.212 48.592 55.0219C48.211 53.369 47.9293 51.7657 47.7305 50.2285C46.9519 43.9145 47.9127 39.0054 50.1492 37.6996C50.6462 37.4021 51.2923 37.2699 52.0543 37.2699V33.5839C50.6627 33.5839 49.4037 33.8814 48.3103 34.5095C43.6552 37.1872 42.6115 45.5343 45.0136 56.0136C34.7094 59.1871 28 64.2615 28 69.6169C28 74.9887 34.7425 80.0796 45.0799 83.2366C42.6943 93.749 43.7546 102.113 48.4263 104.79C49.5031 105.418 50.7621 105.716 52.1537 105.716C56.7095 105.716 62.6734 102.476 68.7035 96.8564C74.7337 102.443 80.6975 105.65 85.2533 105.65C86.6448 105.65 87.9039 105.352 88.9973 104.724C93.6524 102.047 94.6961 93.6994 92.294 83.2201C102.565 80.0631 109.274 74.9722 109.274 69.6169ZM87.7051 58.5921C87.0922 60.7243 86.3301 62.9227 85.4686 65.121C84.7894 63.7987 84.0771 62.4764 83.2985 61.1541C82.5364 59.8318 81.7247 58.5425 80.9129 57.2863C83.2653 57.6334 85.5349 58.0632 87.7051 58.5921ZM80.1177 76.1953C78.8255 78.4267 77.5003 80.5424 76.1252 82.5094C73.6569 82.7243 71.1553 82.84 68.6372 82.84C66.1357 82.84 63.6342 82.7242 61.1824 82.5259C59.8074 80.559 58.4655 78.4598 57.1733 76.2449C55.9143 74.0797 54.7712 71.8813 53.7275 69.6664C54.7547 67.4516 55.9143 65.2367 57.1568 63.0714C58.4489 60.84 59.7743 58.7243 61.1493 56.7574C63.6176 56.5425 66.1192 56.4268 68.6372 56.4268C71.1388 56.4268 73.6403 56.5425 76.0921 56.7409C77.4671 58.7078 78.809 60.807 80.1012 63.0218C81.3602 65.1871 82.5033 67.3855 83.5469 69.6003C82.5033 71.8152 81.3602 74.0301 80.1177 76.1953ZM85.4686 74.0466C86.3632 76.2615 87.1253 78.4763 87.7548 80.6251C85.5846 81.154 83.2985 81.6003 80.9295 81.9474C81.7412 80.6747 82.553 79.3689 83.315 78.0301C84.0771 76.7077 84.7894 75.3689 85.4686 74.0466ZM68.6704 91.6829C67.1297 90.0961 65.589 88.3275 64.0649 86.3937C65.5559 86.4598 67.08 86.5094 68.6207 86.5094C70.1779 86.5094 71.7186 86.4763 73.2261 86.3937C71.7351 88.3275 70.1945 90.0961 68.6704 91.6829ZM56.345 81.9474C53.9926 81.6003 51.723 81.1705 49.5528 80.6416C50.1658 78.5094 50.9278 76.3111 51.7893 74.1127C52.4685 75.435 53.1809 76.7573 53.9595 78.0796C54.7381 79.402 55.5333 80.6912 56.345 81.9474ZM68.5876 47.5508C70.1282 49.1376 71.6689 50.9062 73.193 52.8401C71.702 52.7739 70.1779 52.7244 68.6372 52.7244C67.08 52.7244 65.5393 52.7574 64.0318 52.8401C65.5228 50.9062 67.0634 49.1376 68.5876 47.5508ZM56.3285 57.2863C55.5167 58.559 54.705 59.8648 53.9429 61.2037C53.1808 62.526 52.4685 63.8483 51.7893 65.1706C50.8947 62.9557 50.1326 60.7409 49.5031 58.5921C51.6733 58.0797 53.9595 57.6334 56.3285 57.2863ZM41.3359 77.9805C35.4714 75.4846 31.6777 72.2119 31.6777 69.6169C31.6777 67.0218 35.4714 63.7326 41.3359 61.2533C42.7606 60.6417 44.3178 60.0962 45.9248 59.5838C46.8691 62.8235 48.1116 66.1954 49.6522 69.6499C48.1281 73.0879 46.9022 76.4433 45.9745 79.6664C44.3344 79.154 42.7772 78.592 41.3359 77.9805ZM50.2486 101.6C47.9956 100.311 47.0182 95.4019 47.7802 89.0879C47.9624 87.5341 48.2606 85.8978 48.6251 84.2284C51.8721 85.0218 55.4173 85.6333 59.1447 86.03C61.3812 89.0879 63.7005 91.8647 66.0363 94.2945C60.6357 99.3027 55.5664 102.047 52.1206 102.047C51.3751 102.03 50.7456 101.881 50.2486 101.6ZM89.544 89.0052C90.3226 95.3192 89.3617 100.228 87.1253 101.534C86.6283 101.832 85.9822 101.964 85.2202 101.964C81.7909 101.964 76.705 99.2366 71.3044 94.2614C73.6237 91.8317 75.943 89.0713 78.1463 86.0135C81.8903 85.6168 85.4355 85.0052 88.6825 84.1953C89.0636 85.8647 89.3617 87.468 89.544 89.0052ZM95.922 77.9805C94.4973 78.592 92.9401 79.1375 91.3331 79.6499C90.3888 76.4102 89.1464 73.0383 87.6057 69.5838C89.1298 66.1458 90.3557 62.7904 91.2834 59.5673C92.9235 60.0797 94.4807 60.6417 95.9386 61.2533C101.803 63.7491 105.597 67.0218 105.597 69.6169C105.58 72.2119 101.786 75.5011 95.922 77.9805Z" fill="#61DAFB"/>
<path d="M68.6207 77.1706C72.8019 77.1706 76.1915 73.7887 76.1915 69.6169C76.1915 65.4451 72.8019 62.0632 68.6207 62.0632C64.4394 62.0632 61.0499 65.4451 61.0499 69.6169C61.0499 73.7887 64.4394 77.1706 68.6207 77.1706Z" fill="#61DAFB"/>
<path fill-rule="evenodd" clip-rule="evenodd" d="M132.207 64.1683L138.045 67.7816C138.634 68.1429 138.996 68.7933 138.996 69.4937C138.996 70.1886 138.634 70.8334 138.045 71.2003L132.207 74.8136C132.157 75.3807 132.101 75.9477 132.04 76.5147L137.055 81.1953C137.567 81.6678 137.795 82.3682 137.656 83.052C137.522 83.7358 137.039 84.2972 136.388 84.5418L129.977 86.9377C129.816 87.4936 129.649 88.0439 129.476 88.5943L133.474 94.1477C133.886 94.7091 133.969 95.4429 133.702 96.0878C133.435 96.727 132.857 97.1884 132.168 97.2996L125.406 98.4003C125.145 98.9117 124.872 99.412 124.594 99.9179L127.436 106.149C127.73 106.783 127.669 107.523 127.28 108.101C126.896 108.679 126.235 109.018 125.539 108.99L118.678 108.751C118.328 109.196 117.966 109.635 117.599 110.069L119.173 116.75C119.334 117.429 119.134 118.14 118.639 118.629C118.15 119.124 117.438 119.324 116.759 119.163L110.076 117.59C109.642 117.957 109.203 118.312 108.758 118.668L108.997 125.528C109.008 125.845 108.947 126.156 108.814 126.44C108.352 127.446 107.162 127.885 106.156 127.424L99.9223 124.583C99.818 124.639 99.714 124.695 99.61 124.751C99.2096 124.967 98.8104 125.183 98.4042 125.395L97.3033 132.149C97.2532 132.454 97.1364 132.749 96.9529 132.999C96.3079 133.9 95.0513 134.1 94.1505 133.455L88.5955 129.453C88.045 129.63 87.4945 129.797 86.9385 129.958L84.5419 136.368C84.2972 137.024 83.7356 137.502 83.0517 137.635C82.3733 137.774 81.6671 137.546 81.1945 137.035L76.5181 132.021C75.9509 132.088 75.3838 132.143 74.8166 132.193L71.2023 138.03C70.8353 138.619 70.1902 138.981 69.4952 138.981C68.8001 138.981 68.1551 138.619 67.7881 138.03L64.1738 132.193C64.0318 132.179 63.8898 132.166 63.7478 132.152C63.3227 132.111 62.8974 132.071 62.4723 132.021L57.7903 137.035C57.3177 137.546 56.617 137.774 55.9331 137.635C55.2492 137.502 54.6876 137.018 54.4429 136.368L52.0463 129.958C51.4903 129.797 50.9398 129.625 50.3893 129.453L44.8344 133.455C44.2672 133.861 43.5332 133.944 42.8882 133.677C42.2487 133.411 41.7872 132.832 41.676 132.143L40.575 125.389C40.0634 125.128 39.5574 124.855 39.057 124.577L32.8237 127.418C32.5401 127.546 32.2287 127.607 31.9173 127.596C30.8052 127.551 29.9433 126.623 29.9822 125.517L30.2213 118.657C29.7765 118.307 29.3372 117.946 28.9035 117.579L22.2198 119.152C21.547 119.313 20.8297 119.113 20.3403 118.618C19.851 118.129 19.6453 117.417 19.8065 116.739L21.3968 110.074C21.0298 109.64 20.6684 109.201 20.3125 108.757L13.4564 108.996C12.7614 109.023 12.0997 108.684 11.716 108.106C11.3323 107.528 11.2711 106.789 11.5603 106.155L14.4017 99.9234C14.1237 99.4231 13.8568 98.9173 13.5899 98.4058L6.82831 97.3052C6.51692 97.2551 6.22777 97.1328 5.97198 96.9494C5.07674 96.299 4.871 95.0482 5.52158 94.1477L9.51959 88.5943C9.34722 88.0439 9.18039 87.4936 9.01913 86.9377L2.60788 84.5418C2.31317 84.4362 2.05183 84.2583 1.84053 84.0304C1.0843 83.2188 1.12878 81.9513 1.94061 81.1953L6.95619 76.5147C6.89503 75.9477 6.83943 75.3807 6.78938 74.8136L0.950851 71.2003C0.361438 70.839 0 70.1886 0 69.4937C0 68.7989 0.361438 68.154 0.950851 67.7871L6.78938 64.1738C6.83943 63.6068 6.89503 63.0398 6.95619 62.4728L1.94061 57.7977C1.71263 57.5865 1.54026 57.3252 1.42905 57.0361C1.03425 55.9966 1.56251 54.8348 2.60233 54.4456L9.01358 52.0497C9.16927 51.4938 9.34165 50.9435 9.51402 50.3932L5.51602 44.8398C5.33809 44.5896 5.21575 44.295 5.16571 43.9893C4.98221 42.8941 5.72732 41.8602 6.82274 41.6823L13.5843 40.5816C13.8457 40.0702 14.1181 39.5643 14.3961 39.064L11.5547 32.8324C11.2656 32.1987 11.3212 31.4594 11.7104 30.8812C12.0997 30.3087 12.7558 29.9696 13.4509 29.9918L20.3125 30.2309C20.6628 29.7917 21.0243 29.3525 21.3913 28.9189L19.8176 22.2371C19.6564 21.5644 19.8566 20.8473 20.3514 20.3581C20.8408 19.869 21.5525 19.6633 22.2309 19.8245L28.9146 21.3977C29.3483 21.0308 29.7876 20.6695 30.2325 20.3137L29.9933 13.4539C29.9655 12.7591 30.3047 12.0975 30.883 11.714C31.4613 11.3304 32.1953 11.2693 32.8292 11.5583L39.0626 14.399C39.563 14.121 40.069 13.8542 40.5806 13.5873L41.6815 6.82766C41.7928 6.13835 42.2543 5.56022 42.8937 5.29339C43.5388 5.02656 44.2727 5.1155 44.8399 5.5213L50.3948 9.51819C50.9398 9.34586 51.4903 9.1791 52.0463 9.01789L54.4429 2.60841C54.5485 2.31379 54.7265 2.04696 54.9545 1.83572C55.7663 1.0797 57.0341 1.12417 57.7903 1.93578L62.4723 6.95551C63.0394 6.88881 63.6065 6.83878 64.1737 6.78876L67.7881 0.951845C67.9494 0.685015 68.1718 0.462657 68.4387 0.301448C69.3784 -0.282242 70.6184 0.00682324 71.2023 0.951845L74.8166 6.78874C75.3838 6.83878 75.9509 6.89437 76.5181 6.95551L81.1945 1.93578C81.6671 1.42992 82.3678 1.202 83.0517 1.33541C83.7356 1.46883 84.2972 1.95246 84.5419 2.60285L86.9385 9.01233C87.4945 9.17354 88.045 9.3403 88.59 9.51263L94.1505 5.51575C94.4062 5.33786 94.6954 5.21556 95.0012 5.16553C96.0966 4.98209 97.1309 5.72699 97.3088 6.8221L98.4098 13.5818C98.9214 13.8431 99.4274 14.1154 99.9278 14.3934L106.156 11.5528C106.789 11.2637 107.529 11.3193 108.107 11.7084C108.686 12.092 109.025 12.7535 108.997 13.4484L108.758 20.3081C109.203 20.6639 109.642 21.0252 110.076 21.3921L116.759 19.8189C117.438 19.6577 118.15 19.8578 118.639 20.3526C119.128 20.8418 119.334 21.5533 119.173 22.2315L117.594 28.9134C117.961 29.3414 118.322 29.7806 118.678 30.2253L125.539 29.9863C126.235 29.9585 126.896 30.2976 127.28 30.8757C127.669 31.4538 127.725 32.1932 127.436 32.8269L124.594 39.0585C124.872 39.5588 125.145 40.0646 125.406 40.5761L132.168 41.6767C132.473 41.7268 132.763 41.8491 133.018 42.0325C133.919 42.6829 134.125 43.9337 133.474 44.8342L129.476 50.3876C129.649 50.9379 129.816 51.4883 129.977 52.0442L136.388 54.4401C137.044 54.6847 137.522 55.2461 137.656 55.9299C137.795 56.6136 137.567 57.3196 137.055 57.7921L132.04 62.4672C132.101 63.0342 132.157 63.6012 132.207 64.1683ZM95.813 111.269C95.3348 113.504 96.7528 115.7 98.9825 116.178C101.212 116.656 103.409 115.233 103.881 113.004C104.36 110.775 102.942 108.573 100.712 108.095C98.4821 107.617 96.2913 109.035 95.813 111.269ZM92.5323 105.66C92.9716 103.626 94.9734 102.336 97.003 102.77L105.733 104.649C107.435 102.925 109.008 101.08 110.443 99.1285C110.43 99.1307 110.416 99.1328 110.403 99.1349C112.991 95.8691 116.011 91.5929 117.565 87.7336C119.296 83.432 119.93 77.5977 120.13 72.8124H120.174C120.268 71.5617 120.313 70.3053 120.313 69.0379C120.313 67.4531 120.241 65.8922 120.097 64.3464C120.091 64.2392 120.087 64.1832 120.087 64.1832L120.081 64.1821C120.075 64.1181 120.069 64.0542 120.062 63.9904L110.687 59.8267C108.791 58.9873 107.935 56.7582 108.775 54.857L113.646 43.8558C106.486 31.3303 94.1488 22.1498 79.5506 19.22L79.1182 18.9067L79.0379 19.1198C78.9765 19.1082 78.915 19.0966 78.8535 19.0851L71.7416 25.8837L71.7361 25.8893C70.2347 27.3235 67.8548 27.2624 66.4202 25.7615L60.3764 19.4233L60.2095 18.9067C59.5703 19.0848 58.9425 19.2673 58.3261 19.454C47.8354 21.8057 38.5653 27.4035 31.6337 35.1394H31.7388C26.5466 40.9683 25.3776 45.7741 25.3776 45.7741L28.529 51.9104L28.5704 51.9642L29.7598 54.6569C30.605 56.558 29.7487 58.7816 27.847 59.6266L20.341 62.9632L18.7429 63.5198C18.7429 63.5198 18.7173 64.5814 18.7401 66.2907C18.6916 67.2 18.6666 68.1162 18.6666 69.0379C18.6622 72.8199 19.0801 76.5841 19.9117 80.2672C20.2482 82.1566 20.6792 83.9753 21.2309 85.5776C24.8282 96.026 32.8415 104.484 32.8415 104.484L33.0211 104.399L41.5314 102.569C43.5665 102.136 45.5683 103.431 46.002 105.466L48.0706 115.133C54.5819 118.157 61.8328 119.847 69.4841 119.847C76.963 119.847 84.0637 118.235 90.4583 115.333L92.5323 105.666V105.66ZM34.6531 112.804C35.1313 115.038 37.3277 116.461 39.5574 115.978C41.7816 115.5 43.1996 113.298 42.7269 111.069C42.2487 108.84 40.0523 107.417 37.8225 107.895C35.5928 108.373 34.1749 110.569 34.6531 112.804ZM21.6971 57.5587C23.7823 56.6359 24.722 54.1899 23.799 52.1053C22.8759 50.0152 20.4349 49.0757 18.3552 50.004C16.27 50.9324 15.3303 53.3728 16.2534 55.4574C17.1764 57.542 19.6119 58.487 21.6971 57.5587ZM72.2588 13.5651C70.6796 11.9197 68.0661 11.853 66.4202 13.4317C64.7743 15.0049 64.7132 17.6176 66.2812 19.2742C67.8604 20.9252 70.4738 20.9863 72.1198 19.4076C73.7712 17.8344 73.8324 15.2161 72.2588 13.5651ZM120.179 50.1986C118.094 49.2814 115.664 50.2208 114.741 52.3055C113.818 54.3901 114.758 56.836 116.843 57.7588C116.843 57.7643 116.848 57.7643 116.848 57.7643C118.934 58.6816 121.369 57.7421 122.287 55.6575C123.21 53.5729 122.27 51.127 120.185 50.2042C120.185 50.1986 120.179 50.1986 120.179 50.1986Z" fill="black"/>
</svg>
